!!!OTL: 197. Sher
!!!Genre:	Sher
!!!Mode:	Minor
!!!Listening/dance:	dance
!!!One_Mode:	yes
**kern
*I"P1
*clefG2
*k[b-e-]
*g:
*M2/4
*>A
=1
8.ggL
16ddJk
16ffLL
16ee-
16dd
16ccJJ
=2
16ddLL
16ee-
16dd
16ccJJ
8.b-L
16ddJk
=3
(16ddLL
16cc)
(16cc
16b-JJ)
(16b-LL
16a)
(16a
16gJJ)
=4
16gLL
16a
16b-
16ccJJ
16ddLL
16ee-
16ff
16ggJJ
=5
16eenLL
16ff
16aa-X
16ggJJ
16ffLL
16ee-X
16dd
16ccJJ
=6
16ddLL
16ee-
16dd
16ccJJ
8.b-L
16ddJk
=7
(16ddLL
16cc)
(16cc
16b-JJ)
(16b-LL
16a)
(16a
16gJJ)
=8
4g
4g
=9:|!|:
*>B
((8qdd/
8.bb-L)
16aaJk)
16bb-LL
16aa
16gg
16ff#XJJ
=10
4.gg
16ggLL
16bb-JJ
=11
8.aaL
16ggJk
16aaLL
16gg
16ff#X
16ee-JJ
=12
4dd
8r
8dd
=13
8.ggL
16ddJk
16ffnLL
16ee-
16dd
16ccJJ
=14
16ddLL
16ee-
16dd
16ccJJ
8.b-L
16ddJk
=15
(16ddLL
16cc)
(16cc
16b-JJ)
(16b-LL
16a)
(16a
16gJJ)
=16
16gLL
16a
16b-
16ccJJ
16ddLL
16ee-
16ff
16ggJJ
=17
16eenLL
16ff
16aa-X
16ggJJ
16ffLL
16ee-X
16dd
16ccJJ
=18
16ddLL
16ee-
16dd
16ccJJ
8b-L
(16b-L
16ddJJ)
=19
(16ddLL
16cc)
(16cc
16b-JJ)
(16b-LL
16a)
(16a
16gJJ)
=20
4g
4g
=21:|!|:
*>C
16ddLL
16gg
16gg
16ggJJ
16ddLL
16gg
16gg
16ggJJ
=22
16ddLL
16gg
16gg
16ggJJ
16ddLL
16gg
16gg
16ggJJ
=23
(16ddLL
16bb-)
(16bb-
16aaJJ)
(16aaLL
16gg)
(16gg
16ffJJ)
=24
(16ffLL
16ee-)
(16ee-
16ddJJ)
(16ddLL
16cc)
(16cc
16b-JJ)
=25
16b-LL
16f
16g
16aJJ
16b-LL
16cc
16dd
16ee-JJ
=26
16ffLL
16dd
16b-
16ddJJ
8ccL
16b-L
16aJJ
*>C1
=27
8gL
8ggT
8dd
8ggTJ
=28
8ddL
8ggT
8dd
8ggTJ
*>C2
=29:|!
[2g
=30
4g]
4r
==
*-
